svg/fluentui-system-icons/ic_fluent_arrow_turn_down_up_20_filled.svg

<svg width="20" height="20" viewBox="0 0 20 20" fill="none" xmlns="http://www.w3.org/2000/svg">
<path d="M16.4473 3.47156C16.3694 3.2768 16.2136 3.12355 16.0175 3.04899C15.8215 2.97443 15.6031 2.98537 15.4155 3.07916L10.4146 5.57916C10.0441 5.76437 9.89394 6.21487 10.0792 6.58536C10.2644 6.95586 10.7149 7.10606 11.0854 6.92084L14.3291 5.29925L10.0092 15.1172L5.43955 4.45456C5.27638 4.07384 4.83548 3.89748 4.45475 4.06064C4.07403 4.22381 3.89767 4.66472 4.06083 5.04544L8.8573 16.2372C9.28795 17.242 10.7101 17.2489 11.1504 16.2482L15.7556 5.78188L17.0536 9.02844C17.2074 9.41305 17.6438 9.60018 18.0284 9.4464C18.413 9.29262 18.6002 8.85618 18.4464 8.47156L16.4473 3.47156Z" fill="#212121"/>
</svg>

<svg xmlns="http://www.w3.org/2000/svg" width="20" height="20"><path d="M16.447 3.472a.75.75 0 0 0-1.031-.393l-5.001 2.5a.75.75 0 1 0 .67 1.342l3.244-1.622-4.32 9.818L5.44 4.455a.75.75 0 0 0-1.378.59l4.796 11.192c.431 1.005 1.853 1.012 2.293.011l4.606-10.466 1.298 3.246a.75.75 0 1 0 1.392-.556l-1.999-5Z"/></svg>
